X:527
T: Allerlei Jagen (230), S. 496
N: T0415
O: Luxemburg
S: Singendes Volk, Esch-Alzette, 1937 posth.]
N: Straen, fff Witry, 13.12.1932
R: Jgerlied]
M: 3/4
L: 1/16
K: G
 | G2G2G2G2G2B2 | d2B2G4
A2D2 | D4
A2A2A2B2 | c2B2A4
G2B2 | d4d4e2e2 | d2B2G2
B2c2A2 | B4
BB2cA2B2
G2B2d4B2F2 | A4G4
G2B2 | d4d4e2e2 | d2B2G2
B2c2A2 | B4
BBc2A2B2
G2B2d4B2F2 | A4G2z6

